X:1
T:Beethoven - Rondo für Pianoforte und Violine
T:Beethoven - Rondo für Pianoforte und Violine
T:Serie 12. No. 102.
T:L. van Beethoven
T:First edition dated 1808
T:First edition dated 1808
T:First edition dated 1808
T:First edition dated 1808
T:First edition dated 1808
T:First edition dated 1808
C:L. van Beethoven
Z:First edition dated 1808
%%score 1 { 2 | 3 }
L:1/8
Q:1/4=90
M:6/8
K:G
V:1 treble nm="Violine"
V:2 treble nm="Pianoforte"
V:3 treble 
V:1
"^Allegro" z2 z | z6 | z6 | z6 | z6 | z6 | z6 | z6 | z2 z!p! d3- | d3 (g3- | gf).d d3- | d3 (g3- | %12
 gfe d^ce | d=c).B (.d.^c.A) | (.d.c.A) .B.B (B/d/) | .c(c/d/c/B/) AA (B/c/) | %16
 (d2 e/f/ .g).g (a/g/) | (fd') (a/g/) (fd') (a/g/) | (g/f/e/d/^c/=c/) .B.B (B/d/) | %19
 .c(c/d/c/B/) .A.A (B/c/) | (d2 e/f/ .g).g (a/g/) | (fe') (a/g/) (fe').f | g2 z (gd).B | %23
 (G3{/B} AG).A | (^A2 B) (Bc).=A | (AB).G (GA).F | F2 z (fc).A | (F3{/A} GF).G | (^G2 A) (DE).C | %29
 (CD).B, DDD | G,2 z (ga).f | (fg).e (e^d).f | (f2 e) (AB).G | (GA).F A,A,A, | D2 z (a^g).b | %35
 (b2 a) z ^cc | d2 z (a/^g/b/a/^c'/b/ | a2) z .A.B.^c | (d2 ^c/e/ .d2) z | (e2 ^d/f/ .e2) z | %40
 (e2 f) (.g.a.b) | (a2 f .a2) z | z [A,F][A,F] [A,F][A,F][A,F] | z [A,G][A,G] [A,G][A,G][A,G] | %44
 z ^CE A,A,A, | (D/F/E/G/F/A/ .^C2) z | (D/F/E/G/F/A/ .^C2) z | D2 z z2 z |!f! (G6 | F2) z z2 z | %50
!f! (G6 | F2) z!p! B3 | (F2 .A) (A2 .^c) | (dA^A) (B3 | F3 G3 | F).F.A .d.f.a | .d'2 z z2 z | z6 | %58
 z6 | z6 | z6 | z6 | z6 | z6 | z6 | z6 | z6 | z2 z!p! d3- | d3 (g3- | gf).d d3- | d3 (g3- | %71
 gfe d^ce | d=c).B (.d.c.A) | (.d.c.A) .B.B (B/d/) | .c.c (c/B/) .A(A/B/c/^c/ | %75
 d2) (e/f/) .g.g (a/g/) | (fd') (a/g/) (fd') (a/g/) | (g/f/e/d/^c/=c/) .B.B (B/d/) | %78
 .c.c (c/B/) .A(A/B/c/^c/) | (d2 e/f/) .g.g (a/g/) | (fe') (a/g/) (fe').f | .g2 z z2 d || %82
[K:Bb] (b>ag) (g^f).a | (ag).b (ba).c' | (b>ag) ^f2 z | (d>e)d g2 .d | (b>a).g (g^f).a | %87
 (ag)b (ba).c' | (b>ag) ^f2 z | (d>ed) .g z/ (g/=f/e/) | (d/e/d/c/.B) z2 z | z6 | z6 | z2 z z2 d | %94
 (b>ag) (g^f).a | (ag).b (ba).c' | (b>ag) .^f z z | (d>e.d) g z/ (g/=f/e/) | (d/e/d/c/.B) z2 z | %99
 z6 | z6 | z2 z z2 d | (b>ag) (g^f).a | (ag).b (ba).c' | (b>ag) .^f z z | (d>ed) g2 z | %106
!pp! D3- D2 z | ^F6 |!p! (G2 ^F) .G.G.A | B3 z (BG) |"_dim." (.G.G.G .G.G.G) | (.^F.F.F .F.F.F) || %112
[K:G] (G2 F) .G.G.A | B3 z (BG) |!pp! (.G.G.G .G.G.G) | (.F.F.F .F.F.F) | z6 | z6 | z6 | z6 | z6 | %121
 z6 | z6 | z6 | z6 | z2 z d3- | d3 (g3- | gf).d d3- | d3 (g3- | gf).d!f! (=C/E/G/E/.C) | %130
 (B,/D/G/D/.B,) (A,/C/D/C/.A,) | B,2 z (C/E/G/E/.C) | (B,/D/G/D/.B,) (D/A/c/A/.D) | %133
 [DB]2 z (ef).d | z2 z (cd).B | z2 z d2 d | d2 d d2 d | d2 d d2 d | d2 d d2 d | (d^ce .d)(=cA) | %140
 d2 d d2 d | (d^ce .d)(=cA) | (.d.c.A) .B.B (B/d/) | .c.c (c/B/) .A(A/B/c/^c/) | %144
 (d2 e/f/ .g).g (a/g/) | (fd') (a/g/) (fd') (a/g/) | (g/f/e/d/^c/=c/) .B.B (B/d/) | %147
 .c.c (c/B/) .A(A/B/c/^c/) | d2 z z2 z | z6 | z2 z (D/G/D/G/D/G/) | E2 z (C/D/C/D/C/D/) | %152
 B,2 z .G.G.G | GGG GGG | G2 z!f! (dB)G | D2 (G/D/) (BG)D | B,2 (D/B,/) (GD).B, | %157
 G,/A,/B,/C/D/E/!ff! F/G/A/B/c/d/ | B2 z (dB).G | D2 (G/D/) (BG).D | B,2 (D/B,/) (GD).B, | %161
 G,2 z [Dc]2 z | [DB]2 z [Dcf]2 z |!ff! G,/A,/B,/C/D/E/ F/G/A/D/E/F/ | [G,G]2 z z2 z |] %165
V:2
!p! .B.B (B/d/) | .c.c (c/B/) .A(A/B/c/^c/) | (d2 e/f/ .g)g (a/g/) | (fd') (a/g/) (fd') (a/g/) | %4
 (g/f/e/d/^c/=c/) .B.B (B/d/) | .c.c (c/B/) .A(A/B/c/^c/) | (d2 e/f/ .g).g (a/g/) | %7
 (fe') (a/g/) (fe') .f | g2 z (D/G/B/G/.D) | (D/F/A/F/.D) (A,/E/G/E/.A,) | A,2 z (D/G/B/G/.D) | %11
 (D/F/A/F/.D) (^C/E/G/E/.C) | D2 z z2 z | z6 | z2 z[K:bass] [G,D][G,D][G,D] | %15
 [A,D][A,D][A,D] [F,D][F,D][F,D] | [G,D][G,D][G,D] [B,D][B,D][B,D] | [CD][CD][B,D] [CD][CD][B,D] | %18
 [CD]2 z [G,D][G,D][G,D] | [A,D][A,D][A,D] [F,D][F,D][F,D] | [G,D][G,D][G,D] [B,D][B,D][B,D] | %21
 [CD][CD][B,D] [CD][CD][CD] | [B,D]2 z[K:treble] (bg).d | (^A3{/d} cA).c | (^c2 d) (de).=c | %25
 (cd).B (Bc).A | A2 z (af).=c | (A3{/c} BA).B | (B2 c) (Bd).A | (AB).G (GF).A | %30
 (A2 G) ([GB][Ac]).[FA] | ([FA][GB]).[EG] ([EG][^DF]).[FA] | ([FA]2 [EG]) (fg).e | (ef).d (d^c).e | %34
 (e2 d) z [Ed][Ed] | [E^c]2 z (d/c/e/d/f/e/) | (e2 d) z [Ed][Ed] | [E^c]2 z z2 z | %38
 z [A,F][A,F] [A,F][A,F][A,F] | z [A,G][A,G] [A,G][A,G][A,G] | z [A,^C][A,C] [A,C][A,C][A,C] | %41
 z [A,D][A,D] [A,D][A,D][A,D] | (d2 ^c/e/ d/f/A) z | (e2 ^d/f/ e/g/A) z | (e2 ^d/f/ e/g/f/a/g/b/ | %45
 a2) z (e/g/f/a/g/b/ | a2) z (e/g/f/a/g/b/ | a/)!f!d/^c/d/e/f/ g/a/b/^c'/d'/c'/ | %48
 b/a/g/f/e/d/ ^c/d/e/f/g/e/ | f/d/^c/d/e/f/ g/a/b/^c'/d'/c'/ | b/a/g/f/e/d/ ^c/d/e/f/g/e/ | %51
 f/d/e/f/g/a/!p! (b>ge) | (a>fd) (g>e^c) | (a2 ^a) (b>ge) | (=a>fd) (g>e^c) | d2 z z2 z | z6 | %57
 z .F.A .d.f.a | .c'.a.f .d.c.A | z2 z!p! .B.B (B/d/) | .c.c (c/B/) A(A/B/c/^c/) | %61
 (d2 e/f/ .g).g (a/g/) | (fd') (a/g/) (fd') (a/g/) | (g/f/e/d/^c/=c/) .B.B (B/d/) | %64
 .c.c (c/B/) .A(A/B/c/^c/) | (d2 e/f/ .g).g (a/g/) | (fe') (a/g/) (fe') .f | g2 z (D/G/B/G/.D) | %68
 (D/F/A/F/.D) (A,/E/G/E/.A,) | A,2 z (D/G/B/G/.D) | (D/F/A/F/.D) (^C/E/G/E/.C) | D2 z z2 z | z6 | %73
 z2 z[K:bass] [G,D][G,D][G,D] | [A,D][A,D][A,D] [F,D][F,D][F,D] | [G,D][G,D][G,D] [B,D][B,D][B,D] | %76
 [CD][CD][B,D] [CD][CD][B,D] | [CD]2 z [G,D][G,D][G,D] | [A,D][A,D][A,D] [F,D][F,D][F,D] | %79
 [G,D][G,D][G,D] [B,D][B,D][B,D] | [CD][CD][B,D] [CD][CD][CD] | %81
 [B,D] z/ _E/D/C/ _B,/C/B,/A,/G,/A,/ ||[K:Bb] B,[B,D][B,D] z [A,D][A,D] | z [B,D][B,D] z [CD][CD] | %84
 z [B,D][B,D] z [CD][CD] | z [CD][CD] [B,D]2 z | B,[B,D][B,D] z [A,D][A,D] | %87
 z [B,D][B,D] z [CD][CD] | z [B,D][B,D] z [CD][CD] | z [CD][CD] [B,D]2[K:treble] =F | %90
 (d>cB) (BA).c | (cB).d (dc).e | (d>cB) A2 z | (B>AG) F z/ E/D/C/ | %94
 B,/C/B,/A,/G,/B,/ A,[A,D][A,D] | z [B,D][B,D] z [CD][CD] | z [B,D][B,D] z [CD][CD] | %97
 z [CD][CD] [B,D]2 z | (d>cB) (BA).c | (cB).d (dc).e | (d>cB) A2 z | (B>AG) F z/ E/D/C/ | %102
 B,/C/B,/A,/G,/B,/ A,[A,D][A,D] | z [B,D][B,D] z [CD][CD] | z [B,D][B,D] z [CD][CD] | %105
 z [CD][CD] [B,D]2 z |!pp! (b>ag) ^f2 z | (d>ed) d'3 |!p! (B2 A) BBc | d3 z (dB) | %110
"_dim." (.A.A.A .A.A.A) | (.A.A.A .A.A.A) ||[K:G] (B2 A) .B.B.c | d3 z (dB) |!pp! (.A.A.A .A.A.A) | %115
 (.A.A.A .A.A.A) | z6 | z/ (D/E/F/G/A/)!p! .B.B (B/d/) | .c.c (c/B/) .A (A/B/c/^c/) | %119
 (d2 e/f/ .g).g (a/g/) | (fd') (a/g/) (fd') (a/g/) | (g/f/e/d/^c/=c/) .B.B (B/d/) | %122
 .c.c (c/B/) .A(A/B/c/^c/) | (d2 e/f/ .g).g a/g/ | (fe') (a/g/) (fe') .f | .g2 z (D/G/B/G/.D) | %126
 (D/F/A/F/.D) (A,/E/G/E/.A,) | A,2 z (D/G/B/G/.D) | (D/F/A/F/.D) (^C/E/G/E/.C) | D2 z!f! z gg | %130
 z .g.g{/d} c'3- | (c'b).g z .g.g | z .g.g{/d} c'3- | (c'b).g (ga).f | (ag).e (ef).d | %135
 (fe).c (cd).B | (Bc).A (^AB).d | (Bc)=A (^AB).d | (Bc)=A (Bc).A | z6 | (Bc).A (Bc).A | z6 | %142
 z2 z[K:bass] [G,D][G,D][G,D] | [A,D][A,D][A,D] [F,D][F,D][F,D] | [G,D][G,D][G,D] [B,D][B,D][B,D] | %145
 [CD][CD][B,D] [CD][CD][B,D] | [CD]2 z[K:treble] [DG][DG][DG] | [DA][DA][DA] [DF][DF][DF] | %148
 [DG]2 (e/f/) gg (a/g/) | (fe') (a/g/) (fe') (a/g/) | (f3 .=f).f.f | (e/=f/g/a/b/c'/) .^f.f.f | %152
 (g/b/d'/b/a/g/) .=f.f.f | (e/=f/g/a/b/c'/) .^f.f.f | g2 z z2 z | z6 | z6 | z2 z [A,CDF]2 z | %158
 [B,DG]2 z (d'b).g | d2 (g/d/) (bg).d | B2 (d/B/) (gd).B | G2 z d2 z | G/A/B/c/d/e/ f/g/a/d/e/f/ | %163
!ff! [Bdg]2 z [Acdf]2 z | [Bdg]2 z z2 z |] %165
V:3
 G/D/G/D/G/D/ | A/D/A/D/A/D/ F/D/F/D/F/D/ | B/D/B/D/B/D/ B/D/B/D/B/D/ | c/D/A/D/B/D/ c/D/A/D/B/D/ | %4
 c z z G/D/G/D/G/D/ | A/D/A/D/A/D/ F/D/F/D/F/D/ | B/D/B/D/B/D/ [GB]/D/[GB]/D/[GB]/D/ | %7
 [Ac]/D/[Ac]/D/[GB]/D/ [Ac]/D/[Ac]/D/[Ac]/D/ | .[GB]2 z[K:bass] G,2 z | z6 | z6 | z6 | z6 | %13
"^1" z6 | z2 z G,,G,,G,, | F,,F,,F,, C,C,C, | B,,B,,B,, G,,G,G, | A, z G, A, z G, | %18
 D,2 z G,,G,,G,, | F,,F,,F,, C,C,C, | B,,B,,B,, G,,G,G, | A, z G, A, z D, | G,2 z z2 z | %23
[K:treble] G,GG GGG | GGG z2 z |[K:bass] [D,D]2 z [G,D]2 z | .D,(^CD) D,2 z | D,DD DDD | DDD z z2 | %29
 z2 z (B,A,).C | (C2 B,) z2 z | z2 z B,,B,B, | E,2 z z2 z | z2 z[K:treble] (FE).G | (G2 F) E2 z | %35
 A,2 z A,GG | [DF]2 z E2 z | A,2 z z2 z |[K:bass] D,2 z z2 z | ^C,2 z z2 z | G,2 z z2 z | %41
 F,2 z z2 z | D,2 z z2 z | ^C,2 z z2 z | G,2 z [G,^C][G,C][G,C] | [F,D]2 z [G,^C]2 z | %46
 [F,D]2 z [G,^C]2 z | [F,D]2 z z2 z | [E,D]2 z [A,^C]2 z | [D,D]2 z z2 z | [E,D]2 z [A,^C]2 z | %51
 [B,D]2 z G,B,E | A,DF G,A,E | F,A,D G,B,E | A,DF A,^CE | [D,D]2 z z2 z | .D,,.F,,.A,, .D,.F,.A, | %57
 .D z z4 | z6 | z2 z[K:treble] G/D/G/D/G/D/ | A/D/A/D/A/D/ F/D/F/D/F/D/ | %61
 B/D/B/D/B/D/ B/D/B/D/B/D/ | c/D/A/D/B/D/ c/D/A/D/B/D/ | c z z G/D/G/D/G/D/ | %64
 A/D/A/D/A/D/ F/D/F/D/F/D/ | B/D/B/D/B/D/ [GB]/D/[GB]/D/[GB]/D/ | %66
 [Ac]/D/[Ac]/D/[GB]/D/ [Ac]/D/[Ac]/D/[Ac]/D/ | .[GB]2 z[K:bass] G,2 z | z6 | z6 | z6 | z6 | %72
"^1" z6 | z2 z G,,G,,G,, | F,,F,,F,, C,C,C, | B,,B,,B,, G,,G,G, | A, z G, A, z G, | %77
 D,2 z G,,G,,G,, | F,,F,,F,, C,C,C, | B,,B,,B,, G,,G,G, | A, z G, A, z D, | %81
 G, z/ _E,/D,/C,/ _B,,/C,/B,,/A,,/G,, ||[K:Bb] G,2 z D,2 z | B,,2 z ^F,,2 z | G,,2 z A,,2 z | %85
 D,,2 z G,,2 z | G,2 z D,2 z | B,,2 z ^F,,2 z | G,,2 z A,,2 z | D,,2 z G,,2 z | %90
 B,/F/D/F/D/F/ C/F/D/F/D/F/ | B,/F/D/F/D/F/ A,/F/C/F/C/F/ | B,/F/D/F/D/F/ C/F/E/F/E/F/ | %93
 B,/F/D/F/D/F/ A,/D/C/ z/ z | G,2 z D,2 z | B,,2 z ^F,,2 z | G,,2 z A,,2 z | D,,2 z G,,2 z | %98
 B,/F/D/F/D/F/ C/F/E/F/E/F/ | B,/F/D/F/D/F/ A,/F/C/F/C/F/ | B,/F/D/F/D/F/ C/F/E/F/E/F/ | %101
 B,/F/D/F/D/F/ A,/D/C/ z/ z | G,2 z D,2 z | B,,2 z ^F,,2 z | G,,2 z A,,2 z | D,,2 z G,,2 z | %106
 [G,B,]3 [A,C]2 z | [A,C]6 | z2 z [G,D]2 z | z2 (^C D2) z | (.D.D.D .D.D.D) | %111
 (.D,.D,.D, .D,.D,.D,) ||[K:G] z6 | z6 | (.D.D.D .D.D.D) | %115
 (.[D,=C].[D,C].[D,C] .[D,C].[D,C].[D,C]) | (D,3 F,2 A, | .C) z z G,DD | A,DD CDD | %119
 B,DD B,/D/B,/D/B,/D/ | C/D/C/D/C/D/ C/D/C/D/C/D/ | [A,D]2 z[K:treble] G/D/G/D/G/D/ | %122
 A/D/A/D/A/D/ F/D/F/D/F/D/ | B/D/B/D/B/D/ [GB]/D/[GB]/D/[GB]/D/ | %124
 [Ac]/D/[Ac]/D/[Ac]/D/ [Ac]/D/[Ac]/D/[Ac]/D/ | .[GB]2[K:bass] z G,2 z | F,2 z ^C,2 z | %127
 D,2 z (D,/G,/B,/G,/.D,) | (D,/F,/A,/F,/.D,) F,,2 z | D,2 z =C2 z | B,2 z (F,3 | %131
 G,2) z (C,/E,/G,/E,/.C,) | (B,,/D,/G,/D,/.B,,) F,2 z | G,2 z z2 z | z6 | z2 z[K:treble] (AB).G | %136
 (^GA).F (F=G).B | (^GA)F (F=G).B | (^GA).F (GA).F |"^1" z6 | (=GA).F (GA).F |"^1" z6 | %142
[K:bass] z2 z G,,G,,G,, | F,,F,,F,, C,C,C, | B,,B,,B,, G,,G,G, | A, z G, A, z G, | D,2 z G,G,G, | %147
 F,F,F, CCC | B,2 z B,/D/B,/D/B,/D/ | C/D/C/D/B,/D/ C/D/C/D/B,/D/ | ([CD-]3 [B,D]2) z | %151
 C2 z (([A,C]3 | [B,D]2)) z[K:treble] (B/d/B/d/B/d/) | c2 z (A/c/A/c/A/c/) | %154
 B2 z[K:bass]!f! (DB,).G, | D,2 (G,/D,/) (B,G,).D, | B,,2 (D,/B,,/) (G,D,).B,, | G,,2 z .D,2 z | %158
 .G,2 z (DB,).G, | D,2 (G,/D,/) (B,G,).D, | B,,2 (D,/B,,/) (G,D,).B,, | %161
 G,,/A,,/B,,/C,/D,/E,/ F,/G,/A,/D,/E,/F,/ | G,2 z D,2 z | G,,2 z [D,,D,]2 z | [G,,G,]2 z z2 z |] %165

